X:93
T:Free and Easy* (reel)  
B:CRE2.187 (gan ainm)
F:file ID: cre.2/093free
S:Jimmie Ward (Clare)
N:I have replaced the triplets at the beginning of measures
1 and 5 (both versions).
Q:180
L:1/8
M:4/4
R:reel
K:G
B2Ac BGG2|BGdG BGDG|B2 Ac BGAG|(3Bcd ef gfed|
B2Ac BG (3BAG|BGDG BG Gz|(3BcB Ac BG G2|(3Bcd ef g2||
fg|a2 za a2 ag|fgab (3c'ba (3bag|a2 za a2 ag|fd (3Bcd g2 fg|
a2 za a2 ag|fgab c'2 bc'|d'2 (3c'ba bgag|g2 af gfed||

%%%

